svgs/sharp-light/file-prescription.svg

<svg xmlns="http://www.w3.org/2000/svg" viewBox="0 0 384 512"><!--! Font Awesome Pro 6.6.0 by @fontawesome - https://fontawesome.com License - https://fontawesome.com/license (Commercial License) Copyright 2024 Fonticons, Inc. --><path d="M32 480L32 32l160 0 0 144 0 16 16 0 144 0 0 288L32 480zM224 37.3L346.7 160 224 160l0-122.7zM232 0L32 0 0 0 0 32 0 480l0 32 32 0 320 0 32 0 0-32 0-328L232 0zM112 224l-16 0 0 16 0 80 0 64 0 16 32 0 0-16 0-48 41.4 0 48 48-36.7 36.7L169.4 432 192 454.6l11.3-11.3L240 406.6l36.7 36.7L288 454.6 310.6 432l-11.3-11.3L262.6 384l36.7-36.7L310.6 336 288 313.4l-11.3 11.3L240 361.4l-31.2-31.2C227.3 321.1 240 302 240 280c0-30.9-25.1-56-56-56l-72 0zm72 80l-56 0 0-48 56 0c13.3 0 24 10.7 24 24s-10.7 24-24 24z"/></svg>

<svg xmlns="http://www.w3.org/2000/svg" viewBox="0 0 384 512"><!--! Font Awesome Pro 6.4.0 by @fontawesome - https://fontawesome.com License - https://fontawesome.com/license (Commercial License) Copyright 2023 Fonticons, Inc. --><path d="M32 480V32H192V176v16h16H352V480H32zM224 37.3L346.7 160H224V37.3zM232 0H32 0V32 480v32H32 352h32V480 152L232 0zM112 224H96v16 80 64 16h32V384 336h41.4l48 48-36.7 36.7L169.4 432 192 454.6l11.3-11.3L240 406.6l36.7 36.7L288 454.6 310.6 432l-11.3-11.3L262.6 384l36.7-36.7L310.6 336 288 313.4l-11.3 11.3L240 361.4l-31.2-31.2C227.3 321.1 240 302 240 280c0-30.9-25.1-56-56-56H112zm72 80H128V256h56c13.3 0 24 10.7 24 24s-10.7 24-24 24z"/></svg>
